assets/img/braze_icons/announcement-01.svg

<svg fill="none" height="24" viewBox="0 0 24 24" width="24" xmlns="http://www.w3.org/2000/svg"><g clip-rule="evenodd" fill="#801ed7" fill-rule="evenodd"><path d="m22 6.99999c.5523 0 1 .44772 1 1v4.00001c0 .5523-.4477 1-1 1s-1-.4477-1-1v-4.00001c0-.55228.4477-1 1-1z"/><path d="m16.5669 2.14128c.2924-.13193.7182-.30185 1.1762-.24575.5733.07021 1.0475.35181 1.3835.82153.264.369.3218.80683.3469 1.12256.0265.33372.0265.75875.0265 1.2465v9.82768c0 .4878 0 .9128-.0265 1.2466-.0251.3157-.0829.7535-.3469 1.1225-.336.4697-.8102.7513-1.3835.8215-.458.0561-.8838-.1138-1.1762-.2457-.3176-.1433-.71-.3572-1.1667-.6062l-.0345-.0189c-1.5687-.8551-3.4096-1.6423-4.8657-1.7262 0 1.0948-.0004 2.1897 0 3.2845.0001.1903.0002.3539-.0144.5021-.1403 1.4244-1.26721 2.5513-2.69155 2.6915-.15899.0157-.33568.0145-.54405.0145-.20836 0-.38505.0012-.54405-.0145-1.42433-.1402-2.55122-1.2671-2.6915-2.6915-.0146-.1482-.01453-.3118-.01446-.5021.00044-1.1014.00001-2.2028.00001-3.3042-.05593-.0025-.11006-.0055-.16238-.0091-.32983-.0225-.65974-.072-.98567-.207-.73508-.3045-1.3191-.8885-1.62358-1.6236-.13501-.3259-.18451-.6558-.20702-.9856-.021372-.3133-.021361-.6918-.02135-1.1304v-1.2733c-.000013-.80498-.000024-1.46934.04419-2.01054.04593-.56209.14449-1.0788.39178-1.56413.3835-.75265.99542-1.36457 1.74807-1.74807.48533-.24729 1.00204-.34585 1.56413-.39178.5412-.04422 1.20556-.0442 2.01053-.04419h3.4913c1.4911 0 3.4558-.82881 5.1157-1.73366l.0345-.01886c.4568-.24898.8491-.46287 1.1667-.60619z"/></g></svg>

<svg width="24" height="24" viewBox="0 0 24 24" fill="none" xmlns="http://www.w3.org/2000/svg">
<path fill-rule="evenodd" clip-rule="evenodd" d="M22 6.99999C22.5523 6.99999 23 7.44771 23 7.99999V12C23 12.5523 22.5523 13 22 13C21.4477 13 21 12.5523 21 12V7.99999C21 7.44771 21.4477 6.99999 22 6.99999Z" fill="#801ED7"/>
<path fill-rule="evenodd" clip-rule="evenodd" d="M16.5669 2.14128C16.8593 2.00935 17.2851 1.83943 17.7431 1.89553C18.3164 1.96574 18.7906 2.24734 19.1266 2.71706C19.3906 3.08606 19.4484 3.52389 19.4735 3.83962C19.5 4.17334 19.5 4.59837 19.5 5.08612V14.9138C19.5 15.4016 19.5 15.8266 19.4735 16.1604C19.4484 16.4761 19.3906 16.9139 19.1266 17.2829C18.7906 17.7526 18.3164 18.0342 17.7431 18.1044C17.2851 18.1605 16.8593 17.9906 16.5669 17.8587C16.2493 17.7154 15.8569 17.5015 15.4002 17.2525L15.3657 17.2336C13.797 16.3785 11.9561 15.5913 10.5 15.5074C10.5 16.6022 10.4996 17.6971 10.5 18.7919C10.5001 18.9822 10.5002 19.1458 10.4856 19.294C10.3453 20.7184 9.21839 21.8453 7.79405 21.9855C7.63506 22.0012 7.45837 22 7.25 22C7.04164 22 6.86495 22.0012 6.70595 21.9855C5.28162 21.8453 4.15473 20.7184 4.01445 19.294C3.99985 19.1458 3.99992 18.9822 3.99999 18.7919C4.00043 17.6905 4 16.5891 4 15.4877C3.94407 15.4852 3.88994 15.4822 3.83762 15.4786C3.50779 15.4561 3.17788 15.4066 2.85195 15.2716C2.11687 14.9671 1.53285 14.3831 1.22837 13.648C1.09336 13.3221 1.04386 12.9922 1.02135 12.6624C0.999978 12.3491 0.999989 11.9706 1 11.532L1 10.2587C0.999987 9.45372 0.999976 8.78936 1.04419 8.24816C1.09012 7.68607 1.18868 7.16936 1.43597 6.68403C1.81947 5.93138 2.43139 5.31946 3.18404 4.93596C3.66937 4.68867 4.18608 4.59011 4.74817 4.54418C5.28937 4.49996 5.95373 4.49998 6.7587 4.49999L10.25 4.49999C11.7411 4.49999 13.7058 3.67118 15.3657 2.76633L15.4002 2.74747C15.857 2.49849 16.2493 2.2846 16.5669 2.14128Z" fill="#801ED7"/>
</svg>
